icon/gr/stop-fill.svg

<svg xmlns="http://www.w3.org/2000/svg" width="24" height="24"><path fill="none" stroke="#000" stroke-width="2" d="M4 4h16v16H4V4Zm2 2h12v12H6V6Zm2 2h8v8H8V8Zm2 2h4v4h-4v-4Zm1 1h2v2h-2v-2Z"/></svg>

<svg xmlns="http://www.w3.org/2000/svg" viewBox="0 0 24 24" height="1em" width="1em">
  <path fill="none" stroke="#000" stroke-width="2" d="M4,4 L20,4 L20,20 L4,20 L4,4 Z M6,6 L18,6 L18,18 L6,18 L6,6 Z M8,8 L16,8 L16,16 L8,16 L8,8 Z M10,10 L14,10 L14,14 L10,14 L10,10 Z M11,11 L13,11 L13,13 L11,13 L11,11 Z"/>
</svg>
